X: 4227
M: 6/8
L: 1/8
K: A
|:\
a2A cBA | ecA cBA | a2A cBA | BcA GFE |\
a2A cBA | ecA cBA | fga ecA | dBG A3 :|
|:\
agf efg | agf efg | fga ecA | dBG A3 :|


